!!!COM: Victor Masse/
!!!CNT: Francais
!!!TXO: Francais
!!!OTL: Chante Madeleine!
!!!LYR: Victor Doinet
!!!OPR: Premie\res Me/lodies
!!!ONM: No. 3
!!!ENC: Jacob Pegg
!!!YOR: Romantic French Song 1830-1870 -David Tunley, ed.,
!!!YOR: New York: Garland Publishing, Inc., 1995, Vol. 4
!!!ODT: 1868/
!!NB: Vocal melody and text only encoded.
!!NB: First instance of melodic material only encoded.
**kern	**silbe
!!
!! There are several measures that don't fit the meter. 
!! It appears to be intentional, as the errors are repeated
!! in subsequent strophes. 
!! See mm. 14,18,19, etc. 
!!
*clef G2	*
*k[f#c#g#]	*
*M3/4	*
=11	=11
4r	.
4r	.
{4cc#	{A-
=12	=12
*M4/4	*
4.cc#	-vant
8dd	qu'aux
8cc#	flots
8a	je
8b	m'a-
8cc#	-ban-
=13	=13
4f#	-don-
4b}	-ne,}
8r	.
{8g#	{Viens
8b	t'as-
8ee	-seoir
=14	=14
!!encoded as written
12r	.
12cc#	viens
12ee	t'as-
4a	-seoir
12r	.
12a	a\
12g#	l'ab-
(12f#	|
12.cc#)	-ri
24b	du
=15	=15
2.b}	vent}
{4e	{La\~
=16	=16
4.cc#	~bas
8dd	ou\
8cc#	j'ai
8a	re^-
8b	-ve/
8cc#	sou-
=17	=17
2f#}	-vent,}
8r	.
{8e#	{Et
8g#	dis~
8cc#	~moi
=18	=18
12r	.
12dd	Et
12cc#	dis~
4ff#	~moi
12r	.
(12f#	ta
12g#	chan-
12a	-son
12b	|
12b#)	bre-
=19	=19
(ddq	-tonne,
12cc#)}	|}
{12b#	{Et
12cc#	dis~
(eeq	~moi,
12dd)	|
12cc#	et
12bn	dis~
(bnq	~moi
12a)	|
12g#	ta
12f#	chan-
(aq	-son
12g#	|
12.f#)	|
24e#	bre-
=20	=20
(4f#	-ton-
4cc#	|
4f#)}	-ne.}
8r;	.
{8en	{Ta
=21	=21
!!encoded as written
[2ee	voix
12ee]	|
12e	jet-
12e	-te en
12e	mon
(g#q	coeur
12.f#)	|
24e	l'ou-
=22	=22
2e}	-bli}
4r	.
{4e	{Des
=23	=23
[2ee	maux
12ee]	|
(12e	que
12f#	la
12g#	mis-
12a	-e\re
12b	en-
=24	=24
2ccn)	-trai^-
8ccn}	-ne;}
8r	.
{4ccn	{Ah!
=25	=25
[2dd	chan-
8dd]	|
8gn	-te,
(bq	Ma-
8.a)	|
16gn	-de-
=26	=26
2ee	-lei-
8ee}	-ne,}
8r	.
{8ee	{Ton
8ee	re-
=27	=27
(2dd#	-frain
4ddn)	|
8ee	si
8ddn	jo-
=28	=28
2ccn}	-li}
4r	.
{8ccn	{Ton
8ccn	re-
=29	=29
2b	-frain
(16bq	si
16ddq	|
4.ccn)	|
8b	jo-
=30	=30
(1b}	-li}
=31	=31
*M3/4	*
{[4ee)	{Chan-
(8ee]	|
8cc#	-te
8a	Ma-
8b	-de-
=32	=32
2f#)	-lei-
4f#}	-ne}
=33	=33
{8g#	{Ton
8a	re-
2b	-frain
=34	=34
8a	si
8b	jo-
2cc#}	-li}
=35	=35
{[(4ee	{Chan-
8ee]	|
8cc#	-te
8a	Ma-
8b	-de-
=36	=36
2f#)	-lei-
4f#}	-ne}
=37	=37
{8g	{Ton
8a	re-
2b	-frain
=38	=38
(16aq	si
16bq	|
8cc#)	|
8b	jo-
2a}	-li}
=39	=39
{(2dd	{Ah!
4a)	|
=40	=40
(2cc#	|
4a)	|
=41	=41
(2dd	Ah!
4a)	|
=42	=42
(2cc#	|
4a)}	|}
=43	=43
{8b	{Ton
8f#	re-
4f#	-frain
8g#	si
8b	jo-
=44	=44
(4e	-li
2cc#)	|
=45	=45
8b	Ton
8f#	re-
4f#	-frain
8g#	si
8b	jo-
=46	=46
8a}	-li}
{(8ee	{Ah!
8ff#	|
8ee	|
8a	|
8dd	|
=47	=47
8cc#	|
8e	|
8f#	|
8a	|
8g#	|
8b	|
=48	=48
8a)}	|}
{(8ee	{Ah!
8ff#	|
8ee	|
8a	|
8dd	|
=49	=49
8cc#	|
8e	|
8f#	|
8a	|
8g#	|
8ee;	|
=50	=50
2a)}	|}
4r	.
!!two written-out strophes follow. 
*-	*-
